X: 144119
Q: "Hornpipe."
M: C
L: 1/8
K: D
d2A>F D2F>A | d2f>d e2g>e |\
f>dc>d B>cd>e | f>dg>e d>cB>A |\
d2A>F D2F>A | d2f>d e2g>e |\
f>dc>d A>dc>e | f2d2d2 |]
d>e |\
f>dc>d B>dA>d | G>dF>d E>FD>F |\
g>fe>d A>dc>e | f2d2d2 H|]


